assets/svg/Bus.svg

<svg width="64" height="48" viewBox="0 0 64 48" fill="none" xmlns="http://www.w3.org/2000/svg">
<path d="M7.21997 16.09L9.50997 14.25C9.89255 13.961 10.3515 13.7907 10.83 13.76H43.61C44.0884 13.7907 44.5474 13.961 44.93 14.25L51.78 19.74C52.47 20.29 52.57 20.74 51.98 20.74H7.21997V16.09Z" fill="#FF8E1F"/>
<path d="M2.25 31.83C2.25 32.33 2.67 32.63 3.16 32.74C4.24 32.97 7 33.65 7.51 33.65H60.85C61.0913 33.65 61.3228 33.5541 61.4935 33.3835C61.6641 33.2128 61.76 32.9814 61.76 32.74V29.84L61.46 29.03V22.65L59.94 16.65C59.8775 16.361 59.7264 16.0987 59.5077 15.8997C59.289 15.7007 59.0136 15.575 58.72 15.54H3.62C3.35531 15.5912 3.11451 15.7272 2.93406 15.9275C2.75362 16.1278 2.64336 16.3814 2.62 16.65C2.46 18.82 2.27 22.53 2.27 22.53L2.25 31.83Z" fill="#081B31"/>
<path d="M2.06995 31.52C2.06995 32.03 2.48995 32.33 2.98995 32.44C4.06995 32.67 6.84995 33.36 7.36995 33.36H60.9999C61.1208 33.36 61.2404 33.3362 61.352 33.29C61.4636 33.2437 61.5651 33.176 61.6505 33.0905C61.7359 33.0051 61.8037 32.9037 61.8499 32.7921C61.8961 32.6805 61.9199 32.5608 61.9199 32.44V29.51L61.6099 28.7V22.28L60.0799 16.28C60.0188 15.9877 59.8669 15.7221 59.6461 15.521C59.4253 15.32 59.1467 15.1936 58.8499 15.16H3.44995C3.18372 15.2117 2.94177 15.3492 2.76116 15.5514C2.58055 15.7537 2.47123 16.0097 2.44995 16.28C2.28995 18.46 2.09995 22.19 2.09995 22.19L2.06995 31.52Z" fill="#FF8E1F"/>
<path d="M60.24 28.76V33.37H53.59V28.76H60.24ZM53.77 33.18H60V29.18H53.8L53.77 33.18Z" fill="#081B31"/>
<path d="M2.08997 21.95C2.08997 21.09 2.28997 18.13 2.42997 16.28C2.43507 16.0376 2.53364 15.8065 2.70508 15.6351C2.87652 15.4637 3.10757 15.3651 3.34997 15.36H59.19C59.4017 15.3553 59.6085 15.4247 59.7746 15.5561C59.9407 15.6876 60.0558 15.8728 60.1 16.08L61.63 22V28.7L61.81 29.18H53.58C49.14 29.18 48.06 21.94 40.91 21.94L2.08997 21.95Z" fill="#081B31"/>
<path d="M32.38 15.77H22.62V21.35H32.38V15.77Z" fill="#CED1D6"/>
<path d="M59.53 15.77H59.68C59.96 15.77 60.05 15.88 60.11 16.12L61.51 21.54H60.89L59.53 15.77Z" fill="#CED1D6"/>
<path d="M59 15.77C59 15.84 60.37 21.35 60.37 21.35H52.42V15.77H59Z" fill="#CED1D6"/>
<path d="M22.0799 15.77H12.3199V21.35H22.0799V15.77Z" fill="#CED1D6"/>
<path d="M11.79 21.35H2.52002C2.58002 20.21 2.72002 17.84 2.84002 16.29C2.84248 16.1546 2.8967 16.0252 2.99154 15.9285C3.08639 15.8318 3.21466 15.7751 3.35002 15.77H11.8L11.79 21.35Z" fill="#CED1D6"/>
<path d="M42.83 15.77H32.87V21.35H42.83V15.77Z" fill="#CED1D6"/>
<path d="M43.36 15.77H51.9V21.35H45.76H43.36V15.77Z" fill="#CED1D6"/>
<path d="M61.6501 22.5H60.3101V28.09H61.6501V22.5Z" fill="#CED1D6"/>
<path d="M59.6599 22.48H53.8199V27.91H59.6599V22.48Z" fill="#CED1D6"/>
<path d="M52.69 27.91L47.51 22.48H53.15V27.91H52.69Z" fill="#CED1D6"/>
<path d="M62 29.5H60.47V30.21H62V29.5Z" fill="#CED1D6"/>
<path d="M61.35 29.59H60.65V30.12H61.35V29.59Z" fill="#F49625"/>
<path d="M3.53 29.5H2V30.21H3.53V29.5Z" fill="#CED1D6"/>
<path d="M3.35002 29.59H2.65002V30.12H3.35002V29.59Z" fill="#F49625"/>
<path d="M2.54 29.59H2V30.12H2.54V29.59Z" fill="#DB3535"/>
<path d="M62 31.42H61.36V32.02H62V31.42Z" fill="#CED1D6"/>
<path d="M53.12 29.5H51.59V30.21H53.12V29.5Z" fill="#CED1D6"/>
<path d="M52.95 29.59H51.76V30.12H52.95V29.59Z" fill="#F49625"/>
<path d="M55.74 29.61H54.21V29.98H55.74V29.61Z" fill="#081B31"/>
<path d="M40.5901 29.5H39.0601V30.21H40.5901V29.5Z" fill="#CED1D6"/>
<path d="M40.43 29.59H39.24V30.12H40.43V29.59Z" fill="#F49625"/>
<path d="M27.07 29.5H25.54V30.21H27.07V29.5Z" fill="#CED1D6"/>
<path d="M26.91 29.59H25.72V30.12H26.91V29.59Z" fill="#F49625"/>
<path d="M7.74997 29.5H6.21997V30.21H7.74997V29.5Z" fill="#CED1D6"/>
<path d="M7.59002 29.59H6.40002V30.12H7.59002V29.59Z" fill="#F49625"/>
<path d="M45.53 33.35V31.11C45.53 30.7866 45.594 30.4663 45.7184 30.1678C45.8428 29.8692 46.0251 29.5982 46.2547 29.3705C46.4843 29.1427 46.7568 28.9627 47.0563 28.8407C47.3559 28.7188 47.6766 28.6574 48 28.66H48.82C49.4698 28.66 50.093 28.9181 50.5524 29.3776C51.0119 29.837 51.27 30.4602 51.27 31.11V33.35H45.53Z" fill="#081B31"/>
<path d="M48.41 34.74C49.9011 34.74 51.11 33.5312 51.11 32.04C51.11 30.5488 49.9011 29.34 48.41 29.34C46.9188 29.34 45.71 30.5488 45.71 32.04C45.71 33.5312 46.9188 34.74 48.41 34.74Z" fill="#081B31"/>
<path d="M48.41 34C49.4924 34 50.3699 33.1225 50.3699 32.04C50.3699 30.9575 49.4924 30.08 48.41 30.08C47.3275 30.08 46.45 30.9575 46.45 32.04C46.45 33.1225 47.3275 34 48.41 34Z" fill="#CED1D6"/>
<path d="M48.4101 32.52C48.6751 32.52 48.8901 32.3051 48.8901 32.04C48.8901 31.7749 48.6751 31.56 48.4101 31.56C48.145 31.56 47.9301 31.7749 47.9301 32.04C47.9301 32.3051 48.145 32.52 48.4101 32.52Z" fill="#081B31"/>
<path d="M8.91003 33.35V31.11C8.91003 30.4602 9.16816 29.8371 9.62762 29.3776C10.0871 28.9181 10.7103 28.66 11.36 28.66H12.18C12.8298 28.66 13.453 28.9181 13.9124 29.3776C14.3719 29.8371 14.63 30.4602 14.63 31.11V33.35H8.91003Z" fill="#081B31"/>
<path d="M11.78 34.74C13.2711 34.74 14.48 33.5312 14.48 32.04C14.48 30.5488 13.2711 29.34 11.78 29.34C10.2888 29.34 9.07996 30.5488 9.07996 32.04C9.07996 33.5312 10.2888 34.74 11.78 34.74Z" fill="#081B31"/>
<path d="M11.7799 34C12.8624 34 13.7399 33.1225 13.7399 32.04C13.7399 30.9575 12.8624 30.08 11.7799 30.08C10.6975 30.08 9.81995 30.9575 9.81995 32.04C9.81995 33.1225 10.6975 34 11.7799 34Z" fill="#CED1D6"/>
<path d="M11.78 32.52C12.0451 32.52 12.26 32.3051 12.26 32.04C12.26 31.7749 12.0451 31.56 11.78 31.56C11.515 31.56 11.3 31.7749 11.3 32.04C11.3 32.3051 11.515 32.52 11.78 32.52Z" fill="#081B31"/>
<path d="M15.72 33.35V31.11C15.72 30.4602 15.9781 29.8371 16.4376 29.3776C16.897 28.9181 17.5202 28.66 18.17 28.66H19C19.6498 28.66 20.2729 28.9181 20.7324 29.3776C21.1918 29.8371 21.45 30.4602 21.45 31.11V33.35H15.72Z" fill="#081B31"/>
<path d="M18.6 34.74C20.0912 34.74 21.3 33.5312 21.3 32.04C21.3 30.5488 20.0912 29.34 18.6 29.34C17.1089 29.34 15.9 30.5488 15.9 32.04C15.9 33.5312 17.1089 34.74 18.6 34.74Z" fill="#081B31"/>
<path d="M18.6 34C19.6825 34 20.56 33.1225 20.56 32.04C20.56 30.9575 19.6825 30.08 18.6 30.08C17.5175 30.08 16.64 30.9575 16.64 32.04C16.64 33.1225 17.5175 34 18.6 34Z" fill="#CED1D6"/>
<path d="M18.6 32.52C18.8651 32.52 19.08 32.3051 19.08 32.04C19.08 31.7749 18.8651 31.56 18.6 31.56C18.3349 31.56 18.12 31.7749 18.12 32.04C18.12 32.3051 18.3349 32.52 18.6 32.52Z" fill="#081B31"/>
<path d="M59.88 22.07C60.0346 22.07 60.16 21.9447 60.16 21.79C60.16 21.6354 60.0346 21.51 59.88 21.51C59.7253 21.51 59.6 21.6354 59.6 21.79C59.6 21.9447 59.7253 22.07 59.88 22.07Z" fill="#070F16"/>
<path d="M59.83 21.9V21.73C59.9856 21.7401 60.1318 21.8084 60.2393 21.9215C60.3468 22.0346 60.4078 22.184 60.41 22.34V22.63C60.4812 22.6479 60.5453 22.6873 60.5936 22.7427C60.6418 22.7981 60.672 22.867 60.68 22.94V25.22C60.68 25.42 60.45 25.58 60.17 25.58H59.99V22.61H60.17H60.24V22.36C60.2429 22.2456 60.2022 22.1343 60.126 22.0488C60.0499 21.9634 59.944 21.9101 59.83 21.9Z" fill="#0E1823"/>
</svg>

<svg width="64" height="48" fill="none" xmlns="http://www.w3.org/2000/svg">
    <path d="m7.22 16.09 2.29-1.84a2.45 2.45 0 0 1 1.32-.49h32.78c.478.03.937.201 1.32.49l6.85 5.49c.69.55.79 1 .2 1H7.22v-4.65Z" fill="#FF8E1F"/>
    <path d="M2.25 31.83c0 .5.42.8.91.91 1.08.23 3.84.91 4.35.91h53.34a.91.91 0 0 0 .91-.91v-2.9l-.3-.81v-6.38l-1.52-6a1.42 1.42 0 0 0-1.22-1.11H3.62a1.24 1.24 0 0 0-1 1.11c-.16 2.17-.35 5.88-.35 5.88l-.02 9.3Z" fill="#081B31"/>
    <path d="M2.07 31.52c0 .51.42.81.92.92 1.08.23 3.86.92 4.38.92H61a.92.92 0 0 0 .92-.92v-2.93l-.31-.81v-6.42l-1.53-6a1.42 1.42 0 0 0-1.23-1.12H3.45a1.24 1.24 0 0 0-1 1.12c-.16 2.18-.35 5.91-.35 5.91l-.03 9.33Z" fill="#FF8E1F"/>
    <path d="M60.24 28.76v4.61h-6.65v-4.61h6.65Zm-6.47 4.42H60v-4h-6.2l-.03 4Z" fill="#081B31"/>
    <path d="M2.09 21.95c0-.86.2-3.82.34-5.67a.94.94 0 0 1 .92-.92h55.84a.91.91 0 0 1 .91.72L61.63 22v6.7l.18.48h-8.23c-4.44 0-5.52-7.24-12.67-7.24l-38.82.01Z" fill="#081B31"/>
    <path d="M32.38 15.77h-9.76v5.58h9.76v-5.58ZM59.53 15.77h.15c.28 0 .37.11.43.35l1.4 5.42h-.62l-1.36-5.77ZM59 15.77c0 .07 1.37 5.58 1.37 5.58h-7.95v-5.58H59ZM22.08 15.77h-9.76v5.58h9.76v-5.58ZM11.79 21.35H2.52c.06-1.14.2-3.51.32-5.06a.53.53 0 0 1 .51-.52h8.45l-.01 5.58ZM42.83 15.77h-9.96v5.58h9.96v-5.58ZM43.36 15.77h8.54v5.58h-8.54v-5.58ZM61.65 22.5h-1.34v5.59h1.34V22.5ZM59.66 22.48h-5.84v5.43h5.84v-5.43ZM52.69 27.91l-5.18-5.43h5.64v5.43h-.46ZM62 29.5h-1.53v.71H62v-.71Z" fill="#CED1D6"/>
    <path d="M61.35 29.59h-.7v.53h.7v-.53Z" fill="#F49625"/>
    <path d="M3.53 29.5H2v.71h1.53v-.71Z" fill="#CED1D6"/>
    <path d="M3.35 29.59h-.7v.53h.7v-.53Z" fill="#F49625"/>
    <path d="M2.54 29.59H2v.53h.54v-.53Z" fill="#DB3535"/>
    <path d="M62 31.42h-.64v.6H62v-.6ZM53.12 29.5h-1.53v.71h1.53v-.71Z" fill="#CED1D6"/>
    <path d="M52.95 29.59h-1.19v.53h1.19v-.53Z" fill="#F49625"/>
    <path d="M55.74 29.61h-1.53v.37h1.53v-.37Z" fill="#081B31"/>
    <path d="M40.59 29.5h-1.53v.71h1.53v-.71Z" fill="#CED1D6"/>
    <path d="M40.43 29.59h-1.19v.53h1.19v-.53Z" fill="#F49625"/>
    <path d="M27.07 29.5h-1.53v.71h1.53v-.71Z" fill="#CED1D6"/>
    <path d="M26.91 29.59h-1.19v.53h1.19v-.53Z" fill="#F49625"/>
    <path d="M7.75 29.5H6.22v.71h1.53v-.71Z" fill="#CED1D6"/>
    <path d="M7.59 29.59H6.4v.53h1.19v-.53Z" fill="#F49625"/>
    <path d="M45.53 33.35v-2.24A2.45 2.45 0 0 1 48 28.66h.82a2.45 2.45 0 0 1 2.45 2.45v2.24h-5.74Z" fill="#081B31"/>
    <path d="M48.41 34.74a2.7 2.7 0 1 0 0-5.4 2.7 2.7 0 0 0 0 5.4Z" fill="#081B31"/>
    <path d="M48.41 34a1.96 1.96 0 1 0 0-3.92 1.96 1.96 0 0 0 0 3.92Z" fill="#CED1D6"/>
    <path d="M48.41 32.52a.48.48 0 1 0 0-.96.48.48 0 0 0 0 .96ZM8.91 33.35v-2.24a2.45 2.45 0 0 1 2.45-2.45h.82a2.45 2.45 0 0 1 2.45 2.45v2.24H8.91Z" fill="#081B31"/>
    <path d="M11.78 34.74a2.7 2.7 0 1 0 0-5.4 2.7 2.7 0 0 0 0 5.4Z" fill="#081B31"/>
    <path d="M11.78 34a1.96 1.96 0 1 0 0-3.92 1.96 1.96 0 0 0 0 3.92Z" fill="#CED1D6"/>
    <path d="M11.78 32.52a.48.48 0 1 0 0-.96.48.48 0 0 0 0 .96ZM15.72 33.35v-2.24a2.45 2.45 0 0 1 2.45-2.45H19a2.45 2.45 0 0 1 2.45 2.45v2.24h-5.73Z" fill="#081B31"/>
    <path d="M18.6 34.74a2.7 2.7 0 1 0 0-5.4 2.7 2.7 0 0 0 0 5.4Z" fill="#081B31"/>
    <path d="M18.6 34a1.96 1.96 0 1 0 0-3.92 1.96 1.96 0 0 0 0 3.92Z" fill="#CED1D6"/>
    <path d="M18.6 32.52a.48.48 0 1 0 0-.96.48.48 0 0 0 0 .96Z" fill="#081B31"/>
    <path d="M59.88 22.07a.28.28 0 1 0 0-.56.28.28 0 0 0 0 .56Z" fill="#070F16"/>
    <path d="M59.83 21.9v-.17a.62.62 0 0 1 .58.61v.29a.36.36 0 0 1 .27.31v2.28c0 .2-.23.36-.51.36h-.18v-2.97h.25v-.25a.45.45 0 0 0-.41-.46Z" fill="#0E1823"/>
</svg>
